wp-content/themes/sd-accesslasers/public/images/application/icons/application-5.svg

<?xml version="1.0" encoding="UTF-8"?>
<svg width="120px" height="120px" viewBox="0 0 120 120" version="1.1" xmlns="http://www.w3.org/2000/svg" xmlns:xlink="http://www.w3.org/1999/xlink">
    <!-- Generator: Sketch 55 (78076) - https://sketchapp.com -->
    <title>5</title>
    <desc>Created with Sketch.</desc>
    <g id="Home" stroke="none" stroke-width="1" fill="none" fill-rule="evenodd">
        <g id="AL_Home-Copy" transform="translate(-900.000000, -2445.000000)" fill="currentColor" fill-rule="nonzero">
            <g id="Features" transform="translate(195.000000, 1665.000000)">
                <g id="Icons">
                    <g id="5" transform="translate(557.000000, 710.000000)">
                        <g id="icon" transform="translate(148.000000, 70.000000)">
                            <g id="avatar-(1)" transform="translate(10.000000, 10.000000)">
                                <path d="M25.8300781,36.7088511 C26.3420105,36.8459125 26.8608094,36.9129203 27.3773193,36.9129203 C28.4057617,36.9129203 29.4212342,36.6441277 30.3359984,36.1164413 C32.5698852,34.8295869 33.6479188,32.3030885 33.2054139,29.9045138 L36.9407654,27.8417398 C38.2148742,29.0341739 39.9253846,29.7674524 41.8060303,29.7674524 C43.7263488,29.7674524 45.4704285,29.0029544 46.7521668,27.7648331 L49.7795105,29.5093201 C49.1500855,32.2650158 50.3501893,35.2301109 52.9281617,36.7157041 C53.9505004,37.3043068 55.0842285,37.6050803 56.2339783,37.6050803 C56.8092346,37.6050803 57.3898316,37.5296967 57.9605102,37.3766448 C59.6717834,36.9190119 61.101532,35.8240437 61.9873047,34.2927632 C62.8730773,32.7622441 63.1080627,30.9781616 62.650299,29.2702242 C62.1917725,27.5622867 61.0939025,26.1353253 59.5603943,25.2512791 C58.026123,24.3672331 56.2393187,24.1327058 54.5280457,24.5903388 C53.466034,24.8743604 52.5123596,25.4043312 51.7295838,26.1315181 L48.7091064,24.3908382 C48.8479613,23.8372624 48.9234924,23.2593201 48.9234924,22.6631031 C48.9234924,19.4223624 46.7361449,16.6834187 43.7583924,15.8336378 L43.7583924,11.6197612 C46.0762023,10.8118604 47.7439881,8.60974055 47.7439881,6.02461014 C47.7439881,2.75645712 45.0798035,0.0974658869 41.8060303,0.0974658869 C38.5314941,0.0974658869 35.8673096,2.75645712 35.8673096,6.02461014 C35.8673096,8.60974055 37.5350953,10.8118604 39.8529053,11.6197612 L39.8529053,15.8343994 C36.8751525,16.6841801 34.6885682,19.4231238 34.6885682,22.6638645 C34.6885682,23.2981542 34.7732543,23.9118848 34.9304199,24.4974415 L31.2721252,26.5168129 C30.5984496,25.9289717 29.7943115,25.4972283 28.9039611,25.2588938 C27.3719787,24.8492324 25.7720947,25.0593934 24.3980408,25.8513037 C23.0247498,26.643214 22.0420838,27.9209308 21.6316223,29.4499269 C21.220398,30.978923 21.4317322,32.5764499 22.2244262,33.9470639 C23.0178832,35.3184394 24.2980957,36.2991899 25.8300781,36.7088511 L25.8300781,36.7088511 Z M53.8841248,29.623538 C54.2480469,28.9945786 54.8362732,28.5445602 55.5389404,28.3564815 C56.2423707,28.1684027 56.9770812,28.2651072 57.6072693,28.6283199 C58.2382203,28.9915326 58.6891174,29.5778509 58.8775635,30.2799099 C59.0660096,30.9819688 58.9691162,31.7152474 58.6051941,32.3442068 C58.2412719,32.9739279 57.6530457,33.4239462 56.9496154,33.612025 C56.2469482,33.7993421 55.5122375,33.7033992 54.8812867,33.3401864 C53.5804748,32.5901559 53.1326293,30.9225754 53.8841248,29.623538 Z M41.8060303,3.99610136 C42.9260254,3.99610136 43.838501,4.90527524 43.838501,6.02461014 C43.838501,7.14242203 42.9260254,8.0523575 41.8060303,8.0523575 C40.6852723,8.0523575 39.7735596,7.14242203 39.7735596,6.02461014 C39.7735596,4.90527524 40.6852723,3.99610136 41.8060303,3.99610136 Z M41.8060303,19.4589121 C43.5768127,19.4589121 45.0172424,20.8965339 45.0172424,22.6638645 C45.0172424,24.4311951 43.5768127,25.868817 41.8060303,25.868817 C40.0352479,25.868817 38.5948182,24.4311951 38.5948182,22.6638645 C38.5948182,20.8965339 40.0352479,19.4589121 41.8060303,19.4589121 Z M25.4043578,30.4588511 C25.5447387,29.9357333 25.880432,29.4978984 26.3511658,29.2275828 C26.8211365,28.9565058 27.3696898,28.8841678 27.8930664,29.024275 C28.4179687,29.1643823 28.8558961,29.5001828 29.1275023,29.9699988 C29.6875,30.9385661 29.3540955,32.1812561 28.3828734,32.7409236 C27.9129027,33.0120004 27.3651123,33.083577 26.8409729,32.9434698 C26.3168336,32.8033626 25.8781434,32.4675622 25.6072998,31.9977462 C25.3356934,31.5286916 25.263977,30.9819688 25.4043578,30.4588511 Z" id="Shape"></path>
                                <path d="M39.8529053,37.0004873 L39.8529053,53.8940667 C39.8529053,54.9699988 40.727234,55.8433844 41.8060303,55.8433844 C42.8840637,55.8433844 43.7583924,54.9699988 43.7583924,53.8940667 L43.7583924,37.0004873 C43.7583924,35.9245554 42.8840637,35.051931 41.8060303,35.051931 C40.727234,35.051931 39.8529053,35.9245554 39.8529053,37.0004873 Z" id="Path"></path>
                                <path d="M91.0415648,53.0876889 C93.6149598,51.0629873 95.2720643,47.9273271 95.2720643,44.4109405 L95.2720643,27.7998598 C95.2720643,22.6829008 91.1018371,18.5200413 85.974884,18.5200413 L74.1661072,18.5200413 C71.0731506,18.5200413 68.5569764,21.0313109 68.5569764,24.1182382 L68.5569764,28.2338877 C68.5569764,31.6154971 70.4017639,34.573739 73.1384277,36.1628899 L73.1384277,44.4109405 C73.1384277,47.9494092 74.8161316,51.1018214 77.4169922,53.125 C72.9919434,55.2631579 69.6907043,59.4206871 68.7896729,64.533839 L65.361023,83.9919895 L55.0018311,83.9919895 C53.9237977,83.9919895 53.0487061,84.8653752 53.0487061,85.9413072 L53.0487061,88.2606908 C51.0673523,88.7411673 49.3637086,89.9343628 48.2246398,91.5516873 C46.433258,89.4995735 43.7988281,88.1990133 40.8638,88.1990133 L22.277832,88.1990133 C21.1997986,88.1990133 20.3254699,89.0723988 20.3254699,90.148331 L20.3254699,95.9955226 L8.88595586,95.9955226 C6.14013672,95.9955226 3.90625,93.7659904 3.90625,91.025524 L3.90625,66.1960893 C3.90625,63.8660452 5.52139277,61.9060673 7.69348145,61.3707663 L7.69348145,81.6916423 C7.69348145,84.9163926 10.3218078,87.5395955 13.5520936,87.5395955 C16.7823791,87.5395955 19.4107055,84.9163926 19.4107055,81.6916423 L19.4107055,67.0732823 C19.4107055,65.9965887 18.536377,65.1239645 17.4583436,65.1239645 C16.3795471,65.1239645 15.5052186,65.9965887 15.5052186,67.0732823 L15.5052186,81.6916423 C15.5052186,82.7668129 14.6293641,83.64096 13.5520936,83.64096 C12.4755859,83.64096 11.5989686,82.7668129 11.5989686,81.6916423 L11.5989686,38.735837 C11.5989686,37.6606665 12.4755859,36.7865193 13.5520936,36.7865193 C14.6293641,36.7865193 15.5052186,37.6606665 15.5052186,38.735837 L15.5052186,51.4802632 C15.5052186,52.5561951 16.3795471,53.4288195 17.4583436,53.4288195 C18.536377,53.4288195 19.4107055,52.5561951 19.4107055,51.4802632 L19.4107055,38.735837 C19.4107055,35.5110867 16.7823791,32.8878838 13.5520936,32.8878838 C10.3218078,32.8878838 7.69348145,35.5110867 7.69348145,38.735837 L7.69348145,57.4096918 C3.35540781,57.9929641 0,61.7096125 0,66.1960893 L0,91.025524 C0,95.9155702 3.98635859,99.8941581 8.88595586,99.8941581 L98.046875,99.8941581 C99.1256715,99.8941581 100,99.0207723 100,97.9448404 L100,67.251462 C100,61.0144066 96.3348389,55.6157103 91.0415648,53.0876889 L91.0415648,53.0876889 Z M72.4624633,24.1182382 C72.4624633,23.1808906 73.2261658,22.4186768 74.1661072,22.4186768 L85.974884,22.4186768 C88.948059,22.4186768 91.3665771,24.8324805 91.3665771,27.7998598 L91.3665771,33.5054214 L77.7442932,33.5054214 C74.8321533,33.5054214 72.4624633,31.1411123 72.4624633,28.2338877 L72.4624633,24.1182382 Z M77.0439148,37.4040569 L91.3665771,37.4040569 L91.3665771,44.4109405 C91.3665771,48.3514559 88.1538391,51.5579314 84.2056273,51.5579314 C80.2566527,51.5579314 77.0439148,48.3514559 77.0439148,44.4109405 L77.0439148,37.4040569 Z M26.7333984,95.9955226 L24.230957,95.9955226 L24.230957,92.0976487 L40.8638,92.0976487 C43.410492,92.0976487 45.5825805,93.7263949 46.3882445,95.9955226 L26.7333984,95.9955226 Z M53.0494689,92.3847162 L53.0494689,95.9955226 L50.6385803,95.9955226 C50.7446289,94.4139864 51.6983031,93.0601244 53.0494689,92.3847162 Z M96.09375,95.9955226 L78.2226562,95.9955226 C79.0122986,94.9614706 79.6081543,93.7614218 79.9453734,92.4403021 L84.2193604,75.7028205 C84.4856262,74.6596308 83.8546754,73.5981665 82.8094482,73.3324195 C81.7634582,73.0666727 80.7006836,73.6971552 80.4344178,74.7403448 L76.1604309,91.4778265 C75.480652,94.1375791 73.085785,95.9955226 70.3346252,95.9955226 L56.9549561,95.9955226 L56.9549561,87.890625 L67.0013428,87.890625 C67.9489137,87.890625 68.7606813,87.2114096 68.9247131,86.2786306 L72.6364137,65.2084856 C73.6320496,59.5577485 78.5270691,55.4565669 84.275818,55.4565669 C90.7928467,55.4565669 96.0945129,60.7478984 96.0945129,67.251462 L96.0945129,95.9955226 L96.09375,95.9955226 Z" id="Shape"></path>
                                <path d="M17.4575805,57.3282164 C16.9441223,57.3282164 16.4398193,57.5353314 16.0766602,57.8977827 C15.713501,58.2617567 15.5044555,58.7627924 15.5044555,59.2752497 C15.5044555,59.7884686 15.713501,60.2910271 16.0766602,60.6557626 C16.4398193,61.018214 16.9441223,61.2245674 17.4575805,61.2245674 C17.9710389,61.2245674 18.4753418,61.018214 18.838501,60.6557626 C19.2016602,60.2910271 19.4107055,59.7899914 19.4107055,59.2752497 C19.4107055,58.7627924 19.2016602,58.2602339 18.838501,57.8977827 C18.4753418,57.5353314 17.9733277,57.3282164 17.4575805,57.3282164 Z" id="Path"></path>
                            </g>
                        </g>
                    </g>
                </g>
            </g>
        </g>
    </g>
</svg>

<svg width="120" height="120" viewBox="0 0 120 120" version="1.1" xmlns="http://www.w3.org/2000/svg"><g id="Home" stroke="none" stroke-width="1" fill="none" fill-rule="evenodd"><g id="AL_Home-Copy" transform="translate(-900 -2445)" fill="currentColor" fill-rule="nonzero"><g id="Features" transform="translate(195 1665)"><g id="Icons"><g id="5" transform="translate(557 710)"><g id="icon" transform="translate(148 70)"><g id="avatar-(1)" transform="translate(10 10)"><path d="M25.83 36.709a5.906 5.906 0 0 0 4.506-.592 5.932 5.932 0 0 0 2.87-6.212l3.735-2.063a7.1 7.1 0 0 0 4.865 1.925 7.1 7.1 0 0 0 4.946-2.002l3.028 1.744a6.625 6.625 0 0 0 3.148 7.207 6.607 6.607 0 0 0 5.033.66 6.586 6.586 0 0 0 4.026-3.083 6.567 6.567 0 0 0 .663-5.023 6.579 6.579 0 0 0-3.09-4.019 6.599 6.599 0 0 0-5.032-.66 6.604 6.604 0 0 0-2.798 1.54l-3.02-1.74a7.089 7.089 0 0 0 .213-1.728c0-3.24-2.187-5.98-5.165-6.83V11.62c2.318-.808 3.986-3.01 3.986-5.595 0-3.269-2.664-5.928-5.938-5.928-3.275 0-5.939 2.66-5.939 5.928 0 2.585 1.668 4.787 3.986 5.595v4.214c-2.978.85-5.164 3.59-5.164 6.83 0 .634.084 1.248.241 1.833l-3.658 2.02a5.918 5.918 0 0 0-2.368-1.258 5.908 5.908 0 0 0-4.506.592 5.891 5.891 0 0 0-2.766 3.599 5.876 5.876 0 0 0 .592 4.497 5.898 5.898 0 0 0 3.606 2.762zm28.054-7.085a2.709 2.709 0 0 1 1.655-1.268 2.713 2.713 0 0 1 2.068.272c.631.364 1.082.95 1.27 1.652a2.698 2.698 0 0 1-.272 2.064 2.706 2.706 0 0 1-1.655 1.268 2.722 2.722 0 0 1-3.065-3.988zM41.806 3.996c1.12 0 2.033.91 2.033 2.029a2.033 2.033 0 0 1-4.065 0c0-1.12.911-2.029 2.032-2.029zm0 15.463a3.212 3.212 0 0 1 3.211 3.205 3.212 3.212 0 0 1-6.422 0 3.212 3.212 0 0 1 3.211-3.205zm-16.402 11c.14-.523.476-.961.947-1.231a2.022 2.022 0 0 1 1.542-.204 2.029 2.029 0 1 1-1.052 3.92 2.015 2.015 0 0 1-1.234-.946 2.01 2.01 0 0 1-.203-1.54z" id="Shape"/><path d="M39.853 37v16.894c0 1.076.874 1.95 1.953 1.95a1.951 1.951 0 0 0 1.952-1.95V37a1.95 1.95 0 0 0-1.952-1.948A1.95 1.95 0 0 0 39.853 37z" id="Path"/><path d="M91.042 53.088c2.573-2.025 4.23-5.16 4.23-8.677V27.8c0-5.117-4.17-9.28-9.297-9.28H74.166c-3.093 0-5.609 2.511-5.609 5.598v4.116c0 3.381 1.845 6.34 4.581 7.929v8.248c0 3.538 1.678 6.69 4.279 8.714a15.67 15.67 0 0 0-8.627 11.409l-3.43 19.458H55a1.952 1.952 0 0 0-1.952 1.95v2.319a8.305 8.305 0 0 0-4.824 3.29 9.75 9.75 0 0 0-7.361-3.352H22.278a1.951 1.951 0 0 0-1.953 1.95v5.847H8.886c-2.746 0-4.98-2.23-4.98-4.97v-24.83a4.98 4.98 0 0 1 3.787-4.825v20.32c0 3.225 2.629 5.849 5.86 5.849 3.23 0 5.858-2.624 5.858-5.848V67.073a1.95 1.95 0 0 0-1.953-1.949 1.951 1.951 0 0 0-1.953 1.95v14.618a1.953 1.953 0 0 1-3.906 0V38.736a1.954 1.954 0 0 1 3.906 0V51.48a1.95 1.95 0 0 0 1.953 1.949 1.95 1.95 0 0 0 1.953-1.949V38.736c0-3.225-2.629-5.848-5.859-5.848s-5.859 2.623-5.859 5.848V57.41C3.355 57.993 0 61.71 0 66.196v24.83c0 4.89 3.986 8.868 8.886 8.868h89.16a1.952 1.952 0 0 0 1.954-1.95V67.252c0-6.237-3.665-11.635-8.958-14.163zm-18.58-28.97c0-.937.764-1.7 1.704-1.7h11.809c2.973 0 5.392 2.414 5.392 5.382v5.705H77.744c-2.912 0-5.282-2.364-5.282-5.271v-4.116zm4.582 13.286h14.323v7.007c0 3.94-3.213 7.147-7.161 7.147-3.95 0-7.162-3.207-7.162-7.147v-7.007zm-50.31 58.592H24.23v-3.898h16.633a5.867 5.867 0 0 1 5.524 3.898H26.733zm26.315-3.611v3.61h-2.41a4.372 4.372 0 0 1 2.41-3.61zm43.045 3.61H78.223a9.872 9.872 0 0 0 1.722-3.555l4.274-16.737a1.953 1.953 0 0 0-3.785-.962L76.16 91.477a6.006 6.006 0 0 1-5.825 4.518h-13.38V87.89h10.046c.948 0 1.76-.68 1.924-1.612l3.711-21.07a11.793 11.793 0 0 1 11.64-9.752c6.517 0 11.819 5.29 11.819 11.794v28.745h-.001z" id="Shape"/><path d="M17.458 57.328a1.97 1.97 0 0 0-1.381.57 1.964 1.964 0 0 0-.573 1.377c0 .513.21 1.016.573 1.38.363.363.867.57 1.38.57a1.97 1.97 0 0 0 1.382-.57c.363-.364.572-.865.572-1.38 0-.512-.21-1.015-.572-1.377a1.965 1.965 0 0 0-1.381-.57z" id="Path"/></g></g></g></g></g></g></g></svg>
